vendor/shopware/storefront/Resources/app/storefront/dist/assets/icon/default/headset.svg

<svg xmlns="http://www.w3.org/2000/svg" width="24" height="24" viewBox="0 0 24 24">
  <path fill="#758CA3" fill-rule="evenodd" d="M2,11 L2,15 L4,15 L4,11 L2,11 Z M22,9 C23.1045695,9 24,9.8954305 24,11 L24,15 C24,16.1045695 23.1045695,17 22,17 L22,20 C22,21.6568542 20.6568542,23 19,23 L18,23 C18,23.5522847 17.5522847,24 17,24 L15,24 C14.4477153,24 14,23.5522847 14,23 L14,21 C14,20.4477153 14.4477153,20 15,20 L17,20 C17.5522847,20 18,20.4477153 18,21 L19,21 C19.5522847,21 20,20.5522847 20,20 L20,17 C18.8954305,17 18,16.1045695 18,15 L18,11 C18,9.8954305 18.8954305,9 20,9 C20,5.13400675 16.8659932,2 13,2 L11,2 C7.13400675,2 4,5.13400675 4,9 C5.1045695,9 6,9.8954305 6,11 L6,15 C6,16.1045695 5.1045695,17 4,17 L2,17 C0.8954305,17 1.3527075e-16,16.1045695 0,15 L0,11 C-1.3527075e-16,9.8954305 0.8954305,9 2,9 C2,4.02943725 6.02943725,-9.02056208e-16 11,-1.77635684e-15 L13,6.66133815e-16 C17.9705627,-2.9559688e-15 22,4.02943725 22,9 Z M20,11 L20,15 L22,15 L22,11 L20,11 Z"/>
</svg>

<svg xmlns="http://www.w3.org/2000/svg" width="24" height="24" viewBox="0 0 24 24"><path fill="#758CA3" fill-rule="evenodd" d="M2 11v4h2v-4H2zm20-2c1.1046 0 2 .8954 2 2v4c0 1.1046-.8954 2-2 2v3c0 1.6569-1.3431 3-3 3h-1c0 .5523-.4477 1-1 1h-2c-.5523 0-1-.4477-1-1v-2c0-.5523.4477-1 1-1h2c.5523 0 1 .4477 1 1h1c.5523 0 1-.4477 1-1v-3c-1.1046 0-2-.8954-2-2v-4c0-1.1046.8954-2 2-2 0-3.866-3.134-7-7-7h-2C7.134 2 4 5.134 4 9c1.1046 0 2 .8954 2 2v4c0 1.1046-.8954 2-2 2H2c-1.1046 0-2-.8954-2-2v-4c0-1.1046.8954-2 2-2 0-4.9706 4.0294-9 9-9h2c4.9706 0 9 4.0294 9 9zm-2 2v4h2v-4h-2z"/></svg>
